X:1
T:Title
%%score { 1 | ( 2 3 ) }
L:1/8
Q:1/4=100
M:4/4
K:C
V:1 treble nm="Grand Piano"
V:2 bass 
V:3 bass 
V:1
 [Ec]2 [Ec][Ec] [FA][EG][CE][DF] | [EG] [EG]2 [FA] [EG]4 | [FA]2 [FA][GB] [Ac][Ac][GB][FA] | %3
w: Haldor~Lillenas * * * * * *|||
 [EG]6 z2 | F2 FE DAGF | E E2 [EG] [Ec]2 [Ge]2 | [^Fd]2 [FA]2 [FB]2 [Fc]2 | [Fd]6 z2 | %8
w: |||||
 [EG] [EG]2 [DF] [CE] [EG]3 | [Ec] [Gc]2 [GB] A c3 | G G2 F E G2 c | d2 [^Fd]2 [=Fd]4 | %12
w: ||||
 [G,EG] [G,EG]2 [G,DF] [G,CE] [CEG]3 | [Ec] [Gc]2 [GB] A c3 | G G2 c e2 d2 | [Ec]6 z2 |] %16
w: ||||
V:2
 [C,G,]2 [C,G,][C,G,] [C,C][C,C][C,G,][C,G,] | [C,C] [C,C]2 [C,C] [C,C]4 | %2
 [F,C]2 [F,C][F,C] [F,C][F,C][F,C][F,C] | [C,C]6 z2 | %4
 [G,B,D]2 [G,B,D][G,B,C] [G,B,][G,B,F][K:bass][G,B,E][G,B,D] | %5
 [C,G,C] [C,G,C]2 [C,C] [C,G,]2 [C,C]2 | [D,A,]2 [D,D]2 [D,C]2 [D,C]2 | [G,B,]6 z2 | %8
 [C,G,] [C,G,]2 [C,G,] [C,G,] [C,C]3 | [C,G,] [E,C]2 [E,C][K:treble] [F,CF] [F,A,F]3 | %10
 [G,CE] [G,CE]2 [G,B,D] [G,C] [G,CE]2 [G,CE] | z4[K:bass] B,4 | C, C,2 C, C, C,3 | %13
 [C,G,] [E,C]2 [E,C] [F,CF] [F,A,F]3 | [G,CE] [G,CE]2 [G,CE] [G,,CG]2 [G,,B,F]2 | [C,C]6 z2 |] %16
V:3
 x8 | x8 | x8 | x8 | x6[K:bass] x2 | x8 | x8 | x8 | x8 | x4[K:treble] x4 | x8 | %11
 [G,B,G]2[K:bass] [D,A,]2 G,F,E,D, | x8 | x8 | x8 | x8 |] %16

